X:1
T:Title
%%score { ( 1 3 ) | 2 }
L:1/8
M:4/4
K:Eb
V:1 treble nm="Grand Piano"
V:3 treble 
V:2 bass 
V:1
 z4 z2[Q:1/4=106] G2 | B3 B G2 G2 | [EA]3 [EA] G2 B2 | c3 c B2 G2 | [DF]6 G2 | B3 B G2 G2 | %6
 [CEA]3 [CEA] [B,EG]2 [A,DF]2 | [G,CE]3 [G,E] [B,EG]2 [A,DF]2 |[M:3/4] [G,E]6 |[M:1/4] [B,DF]2 | %10
[M:4/4] G4 z4 | A4 z4 | B3 c B2 G2 | [DF]6 [DF]2 | G4 z4 |[M:9/8] .A6 z3 | %16
[M:4/4] B3 c [EG]2 [DF]2 |[M:3/4] E6 |] %18
V:2
 z4 z2 [E,B,E]2 | [E,G,E]3 [E,G,E] [E,B,E]2 [E,B,E]2 | [C,C]3 [C,C] [E,B,E]2 [G,B,E]2 | %3
 [A,E]3 [A,E] [G,B,E]2 [E,B,E]2 | [B,,B,]6 [E,B,E]2 | [E,G,E]3 [E,G,E] [E,B,E]2 [E,B,E]2 | %6
 A,,3 C, E,2 B,,2 | C,3 C, B,,2 B,,2 |[M:3/4] E,6 |[M:1/4] B,,2 | %10
[M:4/4] [E,B,E]2 [E,B,]2 [B,,B,]2 [E,G,]2 | A,,2 [C,C]2 [E,B,E]2 [E,B,E]2 | %12
 [E,G,E]3 [E,A,E] [E,G,E]2 [E,B,E]2 | [B,,B,]6 [B,,B,]2 | [E,B,E]2 [E,B,]2 [B,,B,]2 [E,G,]2 | %15
[M:9/8] A,,2 [C,C]- [C,C] [E,B,E]2- [E,B,E] [E,B,E]2 |[M:4/4] [E,G,E]3 [E,A,E] [B,,B,]2 [B,,A,]2 | %17
[M:3/4] [E,G,]6 |] %18
V:3
 x8 | x8 | x8 | x8 | x8 | x8 | x8 | x8 |[M:3/4] x6 |[M:1/4] x2 |[M:4/4] z2 E2 [DF]2 [EB]2 | %11
 [CE]2 E2 G2 G2 | x8 | x8 | z2 E2 [DF]2 [EB]2 |[M:9/8] [CE]2 E- E G2- G G2 |[M:4/4] x8 | %17
[M:3/4] x6 |] %18

